!!!!SEGMENT: pl-sa--275-a-vii-35--001_m-m--ave-regina-caelorum-symphonia.krn
!!!cenid: 17xx:1270
!!!COM: M.M.
!!!COM-rismID: pe30002031
!!!CDT:
!!!CNT:
!!!OPR: Ave Regina caelorum
!!!OTL: Symphonia
!!!OMV: 001
!!!PDT: 1714
!!!AGN: Sacred
!!!SMS-siglum: PL-SA
!!!SMS-shelfmark: 275/A VII 35
!!!SMS-shelfwork: 001-001 M
!!!SMS-variant:
!!!SMS-altvar:
!!!NIFC-rismSourceID: 1001069579
!!!NIFC-rismChildID: 1001069579
!!!NIFC-islandoraID: none
!!!URL-pdf-islandora:
!!!URL-scan: https://bc.bdsandomierz.pl/dlibra/publication/1758/edition/1726/content @EN{Scan in the Sandomierz Diocese Digital Library} @PL{Skany w portalu Cyfrowa Biblioteka Diecezjalna w Sandomierzu}
!!!IIIF:
!!!ONB-nifc: UWAGA: części Ave Regina caelorum: 1. Symphonia, 2. Ave Regina caelorum
!!!OMD: adagio
!!!AIN: 1 organ 2 soprn 2 tromp 1 violb 2 violn
!!!key: B-
**kern	**fba	**kern	**kern	**kern	**kern	**kern	**kern	**kern
*part8	*part8	*part7	*part6	*part5	*part4	*part3	*part2	*part1
*staff8	*staff8	*staff7	*staff6	*staff5	*staff4	*staff3	*staff2	*staff1
*I"[Organo]	*	*I"Viola Dygamba	*I"Violino Secundo	*I"Violino 1mo	*I"Canto 2do.	*I"Canto 1mo.	*I"Clarino 2do .b.	*I"Clarino 1mo .b
*I'b.fig.	*	*I'vla	*I'vl 2	*I'vl 1	*I'S 2	*I'S 1	*I'clno 2	*I'clno 1
*Iorgan	*	*Iviolb	*Ivioln	*Ivioln	*Isoprn	*Isoprn	*Itromp	*Itromp
*ICklav	*	*ICstr	*ICstr	*ICstr	*ICvox	*ICvox	*ICbras	*ICbras
*clefF4	*	*clefF4	*clefG2	*clefG2	*clefC1	*clefC1	*clefG2	*clefG2
*	*	*	*	*	*	*	*ITrd1c2	*ITrd1c2
*ok[e-b-]	*	*ok[e-b-]	*ok[e-b-]	*ok[e-b-]	*	*	*	*
*k[b-e-]	*	*k[b-e-]	*k[b-e-]	*k[b-e-]	*k[b-e-]	*k[b-e-]	*k[b-e-]	*k[b-e-]
*B-:	*	*B-:	*B-:	*B-:	*B-:	*B-:	*B-:	*B-:
*M2/2	*	*M2/2	*M2/2	*M2/2	*M2/2	*M2/2	*M2/2	*M2/2
*met(c|)	*	*met(c|)	*met(c|)	*met(c|)	*met(c|)	*met(c|)	*met(c|)	*met(c|)
*all\right	*	*all\right	*all\right	*all\right	*	*	*all\right	*all\right
=1	=1	=1	=1	=1	=1	=1	=1	=1
!	!	!LO:TX:b:t=Symphonia	!LO:TX:b:t=Sÿmphonia	!LO:TX:a:t=adagio	!	!	!	!
!	!	!LO:TX:a:t=adagio	!LO:TX:a:t=adagio	!LO:TX:b:t=Sÿmphonia	!LO:TX:a:t=Symphonia\nTacet	!LO:TX:a:t=Symphonia\nTacet	!LO:TX:b:t=S\nymphnia	!LO:TX:b:t=S\nynphonia
4r	.	4r	4r	4r	1ryy	1ryy	4r	4r
!LO:TX:b:t=symphpnia	!	!	!	!	!	!	!	!
4B-\	.	4B-\	4dd\	4ff\	.	.	4dd\	4ff\
*	*	*	*2\right	*2\right	*	*	*2\right	*2\right
8E-\L	.	8E-\L	2ee-\	2gg\	.	.	2ee-\	2gg\
8F\	.	8F\	.	.	.	.	.	.
8G\	.	8G\	.	.	.	.	.	.
8A\J	6	8A\J	.	.	.	.	.	.
=2	=2	=2	=2	=2	=2	=2	=2	=2
8B-\L	.	8B-\L	4dd\	4ff\	1ryy	1ryy	4dd\	4ff\
8F\	.	8F\	.	.	.	.	.	.
8F\	.	8F\	4r	4r	.	.	4r	4r
8F\J	.	8F\J	.	.	.	.	.	.
4BB-/	.	4BB-/	8r	8r	.	.	8r	8r
.	.	.	8dd\L	8ff\L	.	.	8dd\L	8ff\L
4BB-/	.	4BB-/	8dd\	8ff\	.	.	8dd\	8ff\
.	.	.	8dd\J	8ff\J	.	.	8dd\J	8ff\J
=3	=3	=3	=3	=3	=3	=3	=3	=3
8r	.	8r	4ee-\	4gg\	1ryy	1ryy	4ee-\	4gg\
8E-\L	.	8E-\L	.	.	.	.	.	.
8E-\	.	8E-\	4r	4r	.	.	4r	4r
8D\J	-6	8D\J	.	.	.	.	.	.
8C\L	.	8C\L	4cc\	4ff\	.	.	4dd\	4ff\
8C\	.	8C\	.	.	.	.	.	.
8D\	-6	8D\	8b-\L	8ee-\L	.	.	8cc\L	8ee-\L
8E-\J	6 5	8E-\J	8b-\J	8dd\J	.	.	8b-\J	8dd\J
=4	=4	=4	=4	=4	=4	=4	=4	=4
*2\right	*	*	*	*	*	*	*	*
!	!	!LO:TX:t=P:problem=mixed beam	!	!	!	!	!	!
2F\	43	8F\L	2f/	2cc\	1ryy	1ryy	2f/	2cc\
.	.	8E-\	.	.	.	.	.	.
.	.	8F\	.	.	.	.	.	.
.	.	8FF/J	.	.	.	.	.	.
4BB-/	.	4BB-/	4d/	4b-\	.	.	4d/	4b-\
!	!	!	!	!	!	!	!	!LO:TX:t=P:problem=brak kreski taktowej
4B-\	.	4B-\	4dd\	4ff\	.	.	4dd\	4ff\
=5	=5	=5	=5	=5	=5	=5	=5	=5-
8E-\L	.	8E-\L	2ee-\	2gg\	1ryy	1ryy	2ee-\	2gg\
8F\	.	8F\	.	.	.	.	.	.
8G\	.	8G\	.	.	.	.	.	.
8A\J	6	8A\J	.	.	.	.	.	.
4B-\	.	4B-\	8dd\L	8ff\L	.	.	8dd\L	8ff\L
.	.	.	8dd\	8ff\	.	.	8dd\	8ff\
4BB-/	.	4BB-/	8dd\	8ff\	.	.	8dd\	8ff\
!	!	!	!	!	!	!	!	!LO:TX:t=P:problem=brak kreski taktowej
.	.	.	8dd\J	8ff\J	.	.	8dd\J	8ff\J
!LO:LB:g=original	!	!LO:LB:g=original	!	!	!	!	!	!
=6	=6	=6	=6	=6	=6	=6	=6	=6-
4BB-/	42	4BB-/	4cc\	8ee-\L	1ryy	1ryy	4cc\	8ee-\L
.	.	.	.	8ee-\	.	.	.	8ee-\
8AA/L	6	4AA/	4cc\	8ff\	.	.	4cc\	8ff\
8ryy	.	.	.	8ff\J	.	.	.	8ff\J
8BB-/	.	8BB-/L	8b-\L	8dd\L	.	.	8b-\L	8dd\L
8C/	.	8C/	8a\	8cc\	.	.	8f\	8cc\
8D/	-6	8D/	8b-\	8dd\	.	.	8b-\	8dd\
!	!	!	!	!	!	!	!LO:TX:t=P:problem=brak kreski taktowej	!LO:TX:t=P:problem=brak kreski taktowej
8E-/J	65	8E-/J	8cc\J	8ee-\J	.	.	8cc\J	8ee-\J
!	!	!	!LO:LB:g=original	!LO:LB:g=original	!	!	!	!
=7	=7	=7	=7	=7	=7	=7	=7-	=7-
!LO:TX:t=P:problem=mixed beam	!	!LO:TX:t=P:problem=mixed beam	!	!	!	!	!LO:TX:t=P:problem=mixed beam	!
8F\L	.	8F\L	8f/L	8cc\L	1ryy	1ryy	8f/L	8cc\L
8E-\	6 5	8E-\	8b-/J	8dd\J	.	.	8b-\J	8dd\J
8F\	43	8F\	4f/	4cc\	.	.	4f/	4cc\
8FF/	.	8FF/J	.	.	.	.	.	.
8BB-/J	.	4BB-/	4d/	4b-\	.	.	4d/	4b-\
8ryy	.	.	.	.	.	.	.	.
8r	.	8r	4r	4r	.	.	4r	4r
8F\	.	8F\	.	.	.	.	.	.
=8	=8	=8	=8	=8	=8	=8	=8	=8
!LO:TX:t=P:problem=mixed beam	!	!LO:TX:t=P:problem=mixed beam	!	!	!	!	!	!
8B-\L	.	8B-\L	8r	8r	1ryy	1ryy	8r	8r
8BB-/J	.	8BB-/J	16dd\LL	16ff\LL	.	.	16dd\LL	16ff\LL
.	.	.	16cc\JJ	16ee-\JJ	.	.	16cc\JJ	16ee-\JJ
!	!	!	!	!	!	!	!	!LO:LB:g=original
=-	=-	=-	=-	=-	=-	=-	=-	=-
8r	.	8r	8b-/L	8dd\L	.	.	8b-\L	8dd\L
8ryy	.	8F\	8a/	8cc\	.	.	8f\	8cc\J
!LO:TX:t=P:problem=mixed beam	!	!LO:TX:t=P:problem=mixed beam	!	!	!	!	!	!
8B-\L	.	8B-\L	8b-/	8dd\	.	.	8b-\	8dd\L
8BB-/J	.	8BB-/J	8f/J	8b-\J	.	.	8f\J	8b-\J
8r	.	8r	4r	4r	.	.	4r	4r
8F\	.	8F\	.	.	.	.	.	.
=9	=9	=9	=9	=9	=9	=9	=9	=9
8B-\L	.	8B-\L	2r	2r	1ryy	1ryy	2r	2r
8A\	.	8A\	.	.	.	.	.	.
8G\	.	8G\	.	.	.	.	.	.
8C\J	.	8C\J	.	.	.	.	.	.
!	!	!	!	!	!	!	!LO:LB:g=original	!
=-	=-	=-	=-	=-	=-	=-	=-	=-
!LO:TX:t=P:problem=mixed beam	!	!LO:TX:t=P:problem=mixed beam	!	!	!	!	!	!
8F\L	.	8F\L	8r	8r	.	.	8r	8r
8AA/	6	8AA/	8ff\	16aa\LL	.	.	8ff\	16aa\LL
.	.	.	.	16gg\JJ	.	.	.	16gg\JJ
8BB-/	6 5	8BB-/	16cc\LL	8aa\L	.	.	4cc\	8aa\
.	.	.	16dd\	.	.	.	.	.
8C/J	.	8C/J	16cc\	16gg\L	.	.	.	16gg\LL
.	.	.	16b-\JJ	16ff\JJ	.	.	.	16ff\JJ
=10	=10	=10	=10	=10	=10	=10	=10	=10
4FF/	.	4FF/	4a/	4ff\	1ryy	1ryy	4f/	4ff\
!	!	!LO:LB:g=original	!	!	!	!	!	!
=-	=-	=-	=-	=-	=-	=-	=-	=-
8r	.	8r	4r	4r	.	.	4r	4r
8AA/	.	8AA/	.	.	.	.	.	.
!LO:LB:g=original	!	!	!	!	!	!	!	!
=-	=-	=-	=-	=-	=-	=-	=-	=-
!	!	!LO:TX:t=P:problem=mixed beam	!	!	!	!	!	!
8BB-/L	.	8BB-/L	2r	2r	.	.	2r	2r
8E-/J	6 5	8E-/	.	.	.	.	.	.
!LO:TX:t=P:problem=mixed beam	!	!	!	!	!	!	!	!
8F\L	.	8F\	.	.	.	.	.	.
8FF/J	.	8FF/J	.	.	.	.	.	.
=11	=11	=11	=11	=11	=11	=11	=11	=11
4BB-/	.	4BB-/	8r	8r	1ryy	1ryy	8r	8r
.	.	.	16dd\LL	16ff\LL	.	.	16dd\LL	16ff\LL
.	.	.	16cc\JJ	16ee-\JJ	.	.	16cc\JJ	16ee-\JJ
8r	.	8r	8b-/L	8dd\L	.	.	8b-\L	8dd\L
8F\	.	8F\	8a/J	8cc\J	.	.	8f\J	8cc\J
!	!	!LO:TX:t=P:problem=mixed beam	!	!	!	!	!	!
8B-\L	.	8B-\L	8b-\L	8dd\L	.	.	8b-\L	8dd\L
8D\	-6	8D/	16cc\L	16ee-\L	.	.	16cc\L	16ee-\L
.	.	.	16b-\JJ	16dd\JJ	.	.	16b-\JJ	16dd\JJ
8E-\	6 5	8E-\	4f/	4cc\	.	.	4f/	4cc\
8F\J	43	8F\J	.	.	.	.	.	.
!	!	!	!LO:LB:g=original	!LO:LB:g=original	!	!	!	!
=12	=12	=12	=12	=12	=12	=12	=12	=12
4BB-/	.	4BB-/	4d/	4b-\	1ryy	1ryy	4d/	4b-\
4B-\	.	4B-\	8b-/L	8dd\L	.	.	8b-\L	8dd\L
.	.	.	8b-/J	8dd\J	.	.	8b-\J	8dd\J
4A\	6	4A\	4f/	4cc\	.	.	4f/	4cc\
4F\	.	4F\	4f/	4cc\	.	.	4f/	4cc\
=13	=13	=13	=13	=13	=13	=13	=13	=13
*	*	*^	*	*	*	*	*	*
4B-\	.	4B-\	2ryy	4b-\	8dd\L	1ryy	1ryy	4b-\	8dd\L
.	.	.	.	.	8ee-\J	.	.	.	8ee-\J
4G\	.	4G\	.	8a\L	4ff\	.	.	8f\L	4ff\
.	.	.	.	8b-\J	.	.	.	8b-\J	.
2C/	43	8C/L	8ryy	4.cc\	4.ff\	.	.	4.cc\	4.ff\
.	.	8ryy	8D\	.	.	.	.	.	.
.	.	8E-/	4ryy	.	.	.	.	.	.
!	!	!	!	!	!LO:TX:a:t=P:problem=♮ above	!	!	!	!LO:SIC:v:s=8een\
.	.	8C/J	.	8cc\	8een\	.	.	8cc\	8ee-\
*	*	*v	*v	*	*	*	*	*	*
=14	=14	=14	=14	=14	=14	=14	=14	=14
4F\	.	4F\	4a/	4ff\	1ryy	1ryy	4f/	4ff\
8BB-/L	.	8BB-/L	8dd\L	8ff\L	.	.	8dd\L	8ff\L
8C/J	-	8C/J	8cc\J	8ee-\J	.	.	8cc\J	8ee-\J
!	!	!LO:LB:g=original	!	!	!	!	!	!
=-	=-	=-	=-	=-	=-	=-	=-	=-
4D\	-6	4D\	8b-/L	8dd\L	.	.	8b-\L	8dd\L
.	.	.	8a/	8cc\	.	.	8f\	8cc\
4E-\	6 5	4E-\	8b-/	8dd\	.	.	8b-\	8dd\
.	.	.	8cc/J	8ee-\J	.	.	8cc\J	8ee-\J
=15	=15	=15	=15	=15	=15	=15	=15	=15
!	!	!LO:TX:t=P:problem=mixed beam	!	!	!	!	!	!
2F\	43	8F\L	2f/	2cc\	1ryy	1ryy	2f/	2cc\
.	.	8E-\	.	.	.	.	.	.
.	.	8F\	.	.	.	.	.	.
.	.	8FF/J	.	.	.	.	.	.
!	!	!	!	!	!	!	!	!LO:LB:g=original
=-	=-	=-	=-	=-	=-	=-	=-	=-
!	!	!	!	!	!	!	!LO:TX:t=P:problem=mixed beam	!
8BB-/L	.	8BB-/L	8d/L	8b-\L	.	.	8d/L	8b-\L
8BB-/	.	8BB-/	8b-/	8dd\	.	.	8b-\	8dd\
8BB-/	.	8BB-/	8b-/	8dd\	.	.	8b-\	8dd\
8BB-/J	.	8BB-/J	8b-/J	8dd\J	.	.	8b-\J	8dd\J
!LO:LB:g=original	!	!	!	!	!	!	!	!
=16	=16	=16	=16	=16	=16	=16	=16	=16
4BB-/	.	4BB-/	4b-\	4dd\	1ryy	1ryy	4b-\	4dd\
8r	.	8r	8r	8r	.	.	8r	8r
!LO:N:vis=4	!	!	!	!	!	!	!	!
8D\	-6	8D\	8dd\	8ff\	.	.	8dd\	8ff\
4E-\	6 5	4E-\	4cc\	4ee-\	.	.	4cc\	4ee-\
!	!	!	!	!	!	!	!LO:TX:t=P:problem=brak kreski taktowej	!
4BB-/	.	4BB-/	4b-\	8dd\L	.	.	4b-\	8dd\L
!	!	!	!	!	!	!	!	!LO:TX:t=P:problem=brak kreski taktowej
.	.	.	.	8ee-\J	.	.	.	8ee-\J
=17	=17	=17	=17	=17	=17	=17	=17-	=17-
!	!	!LO:TX:t=P:problem=mixed beam	!	!	!	!	!	!
2F\	43	8F\L	2f/	2cc\	1ryy	1ryy	2f/	2cc\
.	.	8E-\	.	.	.	.	.	.
.	.	8F\	.	.	.	.	.	.
.	.	8FF/J	.	.	.	.	.	.
2BB-/	.	2BB-/	2d/	2b-\	.	.	2d/	2b-\
==	==	==	==	==	==	==	==	==
*-	*-	*-	*-	*-	*-	*-	*-	*-
!!!system-decoration: [(s1,s2)][(s3,s4)][(s5,s6,s7)](s8)
!!!ENC: Marcin Jachim
!!!END: 2020-11-15
!!!ENC: Marta Chmielewska
!!!END: 2022-01-25
!!!YEC: Copyright 2022 Narodowy Instytut Fryderyka Chopina (https://polishscores.org)
!!!YEM: License CC-BY-4.0 (https://creativecommons.org/licenses/by/4.0)
